X:1
T:Title
%%score { 1 | 2 }
L:1/8
M:4/2
K:Ab
V:1 treble nm="Grand Piano"
V:2 bass 
V:1
 z8 z4[Q:1/4=220] [A,CE]4 | [CEA]6 [B,DG]2 [A,EA]4 [FB]4 | B8 A4 A4 | d4 d4 c4 [EA]4 | %4
[M:6/4] [EB]12 |[M:2/4] [EGB]4 |[M:8/4] [CGc]6 [CGB]2 [CFA]4 [DFB]4 | [E=Ac]8 [DFd]4 [FBd]4 | %8
 [EBd]4 [EAc]4 [DFB]4 [CFA]4 |[M:6/4] [B,EG]12 |[M:2/4] E4 |[M:8/4] A4 B4 c4 A4 | d8 c4 c4 | %13
 B6 B2 B4 A4 |[M:6/4] G12 |[M:2/4] E4 |[M:8/4] E4 [CEA]4 [EAc]4 [_Ge]4 | [Fe]8 [Fd]4 [Ec]4 | %18
 [=Dc]4 [DB]4 [_DF]4 [DG]4 |[M:6/4] [CA]12 |] %20
V:2
 z8 z4 A,,4 | A,,6 B,,2 C,4 [D,F,]4 | [E,G,D]8 [F,A,C]4 [F,A,C]4 | %3
 [F,A,D]4 [G,B,E]4 [A,E]4 [C,A,]4 |[M:6/4] [E,G,]12 |[M:2/4] E,4 |[M:8/4] =E,6 E,2 F,4 F,4 | %7
 F,8 B,4 A,4 | G,4 A,4 D,4 =D,4 |[M:6/4] E,12 |[M:2/4] E,4 | %11
[M:8/4][K:treble] [A,CE]4 [A,DE]4 [A,EA]4 [A,C]4 | [A,FA]8 [A,EA]4 [A,EA]4 | %13
 [A,=DF]6 [A,DF]2[K:bass] [G,E]4 [F,B,D]4 |[M:6/4] [E,B,E]12 |[M:2/4] [D,G,]4 | %16
[M:8/4] [C,A,]4 C,4 A,,4 [C,A,]4 | [D,A,]8 [D,A,]4 [F,=A,]4 | [B,,B,]4 [B,,B,]4 [E,B,]4 [E,B,]4 | %19
[M:6/4] [A,,A,]12 |] %20

